src/scalable/apps/pcbnew.svg

<svg width="64" height="64" viewBox="0 0 64 64" fill="none" xmlns="http://www.w3.org/2000/svg">
<ellipse cx="32" cy="32" rx="27" ry="27" fill="#006400"/>
<path d="M11.75 48.3125V49.8593C12.4549 50.658 13.2063 51.4146 14 52.125V49.4375L23 42.6875V33.6875L14 24.6875V11.875C13.2063 12.5854 12.4549 13.342 11.75 14.1407V25.8125L20.75 34.8125V41.5625L11.75 48.3125Z" fill="#489648"/>
<path d="M16.25 23.5625V10.0672C16.974 9.5464 17.7248 9.06054 18.5 8.61212V22.4375L27.5 31.4375V44.9375L18.5 51.6875V55.3879C17.7248 54.9395 16.974 54.4536 16.25 53.9328V50.5625L25.25 43.8125V32.5625L16.25 23.5625Z" fill="#489648"/>
<path d="M20.75 21.3125V7.44819C21.4829 7.1118 22.2335 6.80726 23 6.53635V20.1875L32 29.1875V47.1875L23 53.9375V57.4636C22.2335 57.1927 21.4829 56.8882 20.75 56.5518V52.8125L29.75 46.0625V30.3125L20.75 21.3125Z" fill="#489648"/>
<path d="M32 5C30.4668 5 28.9634 5.12779 27.5 5.37331V18.5L36.5 27.5H50V23H38.75L32 16.25V5Z" fill="#489648"/>
<path d="M12.875 35.375H5.20889C5.40146 36.9193 5.72445 38.4231 6.16648 39.875H12.875V35.375Z" fill="#489648"/>
<path d="M37.625 14V5.58677C44.0032 6.93842 49.5498 10.5419 53.3935 15.5261C52.4951 15.265 51.5452 15.125 50.5625 15.125C48.1513 15.125 45.9369 15.9679 44.198 17.375H41L37.625 14Z" fill="#489648"/>
<path d="M26.375 58.4132C28.1894 58.7977 30.0711 59 32 59C35.1557 59 38.185 58.4586 41 57.4636V54.5C41 53.2574 42.0074 52.25 43.25 52.25H49.8593C51.0264 51.2199 52.1037 50.0905 53.0781 48.875H51.125V44.375H56.0034C57.9185 40.6679 59 36.4602 59 32H58.1094C56.2554 34.0714 53.5612 35.375 50.5625 35.375C47.5638 35.375 44.8696 34.0714 43.0156 32H36.5L35.375 33.125V47.75L26.375 54.5V58.4132Z" fill="#489648"/>
<path fill-rule="evenodd" clip-rule="evenodd" d="M41 39.625C41 38.5204 41.8954 37.625 43 37.625H46.625V42.125H41V39.625ZM51.125 37.625H54.75C55.8546 37.625 56.75 38.5204 56.75 39.625V42.125H51.125V37.625ZM46.625 44.375H41V46.875C41 47.9796 41.8954 48.875 43 48.875H46.625V44.375Z" fill="#006400"/>
<path fill-rule="evenodd" clip-rule="evenodd" d="M45.25 39.875C44.1454 39.875 43.25 40.7704 43.25 41.875V44.625C43.25 45.7296 44.1454 46.625 45.25 46.625H52.5C53.6046 46.625 54.5 45.7296 54.5 44.625V41.875C54.5 40.7704 53.6046 39.875 52.5 39.875H45.25ZM45.5 54.5H46.9301C45.7666 55.2735 44.5398 55.9593 43.259 56.5477C43.3613 55.3998 44.3255 54.5 45.5 54.5Z" fill="#DD8D15"/>
<path fill-rule="evenodd" clip-rule="evenodd" d="M50.5625 29.75C53.0478 29.75 55.0625 27.7353 55.0625 25.25C55.0625 22.7647 53.0478 20.75 50.5625 20.75C48.0772 20.75 46.0625 22.7647 46.0625 25.25C46.0625 27.7353 48.0772 29.75 50.5625 29.75ZM12.875 42.125C15.3603 42.125 17.375 40.1103 17.375 37.625C17.375 35.1397 15.3603 33.125 12.875 33.125C10.3897 33.125 8.375 35.1397 8.375 37.625C8.375 40.1103 10.3897 42.125 12.875 42.125Z" fill="#F29100"/>
<path fill-rule="evenodd" clip-rule="evenodd" d="M50.5625 26.9375C51.4945 26.9375 52.25 26.182 52.25 25.25C52.25 24.318 51.4945 23.5625 50.5625 23.5625C49.6305 23.5625 48.875 24.318 48.875 25.25C48.875 26.182 49.6305 26.9375 50.5625 26.9375ZM12.875 39.3125C13.807 39.3125 14.5625 38.557 14.5625 37.625C14.5625 36.693 13.807 35.9375 12.875 35.9375C11.943 35.9375 11.1875 36.693 11.1875 37.625C11.1875 38.557 11.943 39.3125 12.875 39.3125Z" fill="white"/>
<path fill-rule="evenodd" clip-rule="evenodd" d="M50.5625 26.9375C51.4945 26.9375 52.25 26.182 52.25 25.25C52.25 24.318 51.4945 23.5625 50.5625 23.5625C49.6305 23.5625 48.875 24.318 48.875 25.25C48.875 26.182 49.6305 26.9375 50.5625 26.9375ZM12.875 39.3125C13.807 39.3125 14.5625 38.557 14.5625 37.625C14.5625 36.693 13.807 35.9375 12.875 35.9375C11.943 35.9375 11.1875 36.693 11.1875 37.625C11.1875 38.557 11.943 39.3125 12.875 39.3125Z" fill="white"/>
</svg>

<svg xmlns="http://www.w3.org/2000/svg" width="64" height="64" fill="none"><circle cx="32" cy="32" r="27" fill="#006400"/><path fill="#489648" d="M11.75 48.313v1.546A27.163 27.163 0 0 0 14 52.125v-2.688l9-6.75v-9l-9-9V11.876a27.163 27.163 0 0 0-2.25 2.266v11.671l9 9v6.75l-9 6.75Z"/><path fill="#489648" d="M16.25 23.563V10.066a27.034 27.034 0 0 1 2.25-1.455v13.825l9 9v13.5l-9 6.75v3.7a27.03 27.03 0 0 1-2.25-1.454v-3.37l9-6.75v-11.25l-9-9Z"/><path fill="#489648" d="M20.75 21.313V7.447c.733-.336 1.483-.64 2.25-.912v13.652l9 9v18l-9 6.75v3.526a26.807 26.807 0 0 1-2.25-.912v-3.74l9-6.75v-15.75l-9-9Z"/><path fill="#489648" d="M32 5c-1.533 0-3.037.128-4.5.373V18.5l9 9H50V23H38.75L32 16.25V5ZM12.875 35.375H5.209c.192 1.544.515 3.048.957 4.5h6.709v-4.5Z"/><path fill="#489648" d="M37.625 14V5.587c6.378 1.351 11.925 4.955 15.769 9.94a10.13 10.13 0 0 0-2.831-.402c-2.412 0-4.626.843-6.365 2.25H41L37.625 14ZM26.375 58.413A27.11 27.11 0 0 0 32 59c3.156 0 6.185-.541 9-1.536V54.5a2.25 2.25 0 0 1 2.25-2.25h6.61a27.164 27.164 0 0 0 3.218-3.375h-1.953v-4.5h4.878A26.884 26.884 0 0 0 59 32h-.89a10.1 10.1 0 0 1-7.547 3.375A10.1 10.1 0 0 1 43.016 32H36.5l-1.125 1.125V47.75l-9 6.75v3.913Z"/><path fill="#006400" fill-rule="evenodd" d="M41 39.625a2 2 0 0 1 2-2h3.625v4.5H41v-2.5Zm10.125-2h3.625a2 2 0 0 1 2 2v2.5h-5.625v-4.5Zm-4.5 6.75H41v2.5a2 2 0 0 0 2 2h3.625v-4.5Z" clip-rule="evenodd"/><path fill="#DD8D15" fill-rule="evenodd" d="M45.25 39.875a2 2 0 0 0-2 2v2.75a2 2 0 0 0 2 2h7.25a2 2 0 0 0 2-2v-2.75a2 2 0 0 0-2-2h-7.25ZM45.5 54.5h1.43a26.961 26.961 0 0 1-3.671 2.048A2.25 2.25 0 0 1 45.5 54.5Z" clip-rule="evenodd"/><path fill="#F29100" fill-rule="evenodd" d="M50.563 29.75a4.5 4.5 0 1 0 0-9 4.5 4.5 0 0 0 0 9ZM12.874 42.125a4.5 4.5 0 1 0 0-9 4.5 4.5 0 0 0 0 9Z" clip-rule="evenodd"/><path fill="#fff" fill-rule="evenodd" d="M50.563 26.938a1.687 1.687 0 1 0 0-3.375 1.687 1.687 0 0 0 0 3.375ZM12.874 39.313a1.687 1.687 0 1 0 0-3.375 1.687 1.687 0 0 0 0 3.374Z" clip-rule="evenodd"/><path fill="#fff" fill-rule="evenodd" d="M50.563 26.938a1.687 1.687 0 1 0 0-3.375 1.687 1.687 0 0 0 0 3.375ZM12.874 39.313a1.687 1.687 0 1 0 0-3.375 1.687 1.687 0 0 0 0 3.374Z" clip-rule="evenodd"/></svg>
